Numix-GalliumOS/22/status/ubuntuone-client-error.svg

<?xml version="1.0" encoding="UTF-8" standalone="no"?>
<svg
   xmlns:dc="http://purl.org/dc/elements/1.1/"
   xmlns:cc="http://creativecommons.org/ns#"
   xmlns:rdf="http://www.w3.org/1999/02/22-rdf-syntax-ns#"
   xmlns:svg="http://www.w3.org/2000/svg"
   xmlns="http://www.w3.org/2000/svg"
   xmlns:sodipodi="http://sodipodi.sourceforge.net/DTD/sodipodi-0.dtd"
   xmlns:inkscape="http://www.inkscape.org/namespaces/inkscape"
   width="22"
   viewBox="0 0 22 22"
   height="22"
   id="svg3003"
   version="1.1"
   inkscape:version="0.91 r"
   sodipodi:docname="ubuntuone-client-error.svg">
  <metadata
     id="metadata3132">
    <rdf:RDF>
      <cc:Work
         rdf:about="">
        <dc:format>image/svg+xml</dc:format>
        <dc:type
           rdf:resource="http://purl.org/dc/dcmitype/StillImage" />
      </cc:Work>
    </rdf:RDF>
  </metadata>
  <sodipodi:namedview
     pagecolor="#ffffff"
     bordercolor="#666666"
     borderopacity="1"
     objecttolerance="10"
     gridtolerance="10"
     guidetolerance="10"
     inkscape:pageopacity="0"
     inkscape:pageshadow="2"
     inkscape:window-width="1280"
     inkscape:window-height="998"
     id="namedview3130"
     showgrid="false"
     inkscape:zoom="10.727273"
     inkscape:cx="11"
     inkscape:cy="11"
     inkscape:window-x="0"
     inkscape:window-y="0"
     inkscape:window-maximized="1"
     inkscape:current-layer="svg3003" />
  <defs
     id="defs3005" />
  <path
     style="fill:#ef555c;fill-opacity:1"
     d="M 9.03125 5 C 8.638969 5.011053 8.238931 5.0842709 7.84375 5.21875 C 6.15304 5.7940087 4.8773448 7.4610104 4.5 9.53125 C 3.3897548 9.7993714 2.4526084 10.778936 2.125 12.1875 C 1.6599801 14.187066 2.6281091 16.250031 4.28125 16.8125 C 4.308338 16.8204 4.316661 16.83665 4.34375 16.84375 C 4.5720782 16.94244 4.8366901 17 5.09375 17 L 17.0625 17 C 17.491505 17 17.883266 16.852572 18.21875 16.59375 C 19.558611 15.819954 20.290757 13.975186 19.875 12.1875 C 19.567834 10.86674 18.707998 9.8976795 17.6875 9.5625 C 17.6786 9.518289 17.69757 9.4817103 17.6875 9.4375 C 17.22248 7.4379342 15.496876 6.2812805 13.84375 6.84375 C 13.5264 6.9519081 13.234914 7.0984577 12.96875 7.3125 C 12.057275 5.8315313 10.576851 4.9581262 9.03125 5 z M 8 9 L 8.75 9 C 8.75777 8.99991 8.773407 8.9996551 8.78125 9 C 8.9723991 9.0084 9.1480717 9.1121282 9.28125 9.25 L 11 10.9375 L 12.75 9.25 C 12.949434 9.0775847 13.06931 9.0074964 13.25 9 L 14 9 L 14 9.75 C 14 9.9647469 13.974188 10.163061 13.8125 10.3125 L 12.09375 12.03125 L 13.78125 13.71875 C 13.922203 13.86118 14 14.0476 14 14.25 L 14 15 L 13.25 15 C 13.051091 14.999992 12.859824 14.922294 12.71875 14.78125 L 11 13.09375 L 9.28125 14.78125 C 9.1402967 14.92368 8.9486841 15 8.75 15 L 8 15 L 8 14.25 C 7.9999978 14.051131 8.0776544 13.859808 8.21875 13.71875 L 9.9375 12.03125 L 8.21875 10.3125 C 8.0613023 10.17007 7.9835055 9.9598968 8 9.75 L 8 9 z "
     id="path3128" />
</svg>

<svg xmlns="http://www.w3.org/2000/svg" viewBox="0 0 22 22">
 <path d="m 9.03 5 c -0.392 0.011 -0.792 0.084 -1.188 0.219 c -1.691 0.575 -2.966 2.242 -3.344 4.313 c -1.11 0.268 -2.047 1.248 -2.375 2.656 c -0.465 2 0.503 4.063 2.156 4.625 c 0.027 0.008 0.035 0.024 0.063 0.031 c 0.228 0.099 0.493 0.156 0.75 0.156 l 11.969 0 c 0.429 0 0.821 -0.147 1.156 -0.406 c 1.34 -0.774 2.072 -2.619 1.656 -4.406 c -0.307 -1.321 -1.167 -2.29 -2.188 -2.625 c -0.009 -0.044 0.01 -0.081 0 -0.125 c -0.465 -2 -2.191 -3.156 -3.844 -2.594 c -0.317 0.108 -0.609 0.255 -0.875 0.469 c -0.911 -1.481 -2.392 -2.354 -3.938 -2.313 z m -1.031 4 l 0.75 0 c 0.008 0 0.023 0 0.031 0 c 0.191 0.008 0.367 0.112 0.5 0.25 l 1.719 1.688 l 1.75 -1.688 c 0.199 -0.172 0.319 -0.243 0.5 -0.25 l 0.75 0 l 0 0.75 c 0 0.215 -0.026 0.413 -0.188 0.563 l -1.719 1.719 l 1.688 1.688 c 0.141 0.142 0.219 0.329 0.219 0.531 l 0 0.75 l -0.75 0 c -0.199 0 -0.39 -0.078 -0.531 -0.219 l -1.719 -1.688 l -1.719 1.688 c -0.141 0.142 -0.333 0.219 -0.531 0.219 l -0.75 0 l 0 -0.75 c 0 -0.199 0.078 -0.39 0.219 -0.531 l 1.719 -1.688 l -1.719 -1.719 c -0.157 -0.142 -0.235 -0.353 -0.219 -0.563 l 0 -0.75 z" style="fill:#ef555c;fill-opacity:1"/>
</svg>
